X:118
T:Devil's Dream,The. (p)1657.PLFD.118
M:6/4
L:1/4
Q:3/4=100
S:Playford, Dancing Master,3rd Ed.,1657
O:England
H:1657.
Z:Chris Partington.
K:F
G3G2A|^F>EFG2G|A2BcdA|1B3-B3:|2B3-B2|
|:d|^c2ddc2|d^c2dA2|BAG^F>EF|1G3-G2:|2G6|]
